!!!SOCIAL_FUNCTION:	songs connected with legends
!!!PDT:	1929
!!!OTL: No_24_He_Walked_Up_the_Slippery_Rocks.krn
!!!REG: Southwest
!!!LANG: Non-Tone
!!!LING_GROUP: Uto-Aztecan
**kern
*staff1
=1-
*clefF4
*k[]
*M2/4
8.A\L
16A\Jk
8.A\L
16A\Jk
=2||
*M3/4
8.d#\L
16c#\Jk
16B\LK
8.B\J
(8B\L
8A#\J)
=3||
*M2/4
8.G#\L
16G#\Jk
8.G#\L
16E\Jk
=4
8.G#\L
16G#\Jk
8.G#\L
16G#\Jk
=5||
*M3/4
(8.A#\L
16G#\Jk)
(8.G#\L
16E\Jk)
(8.G#\L
16E\Jk)
=6
4G#\
4G#\
4r
=7!|:
*M2/4
8.B\L
16B\Jk
8.B\L
16B\Jk
=8||
*M3/4
8.c#\L
16B\Jk
16B\LK
8.A#\J
(8A#\L
8G#\J)
=9||
*M2/4
8.G#\L
16G#\Jk
(8.G#\L
16E\Jk)
=10
8.G#\L
16G#\Jk
8.G#\L
16G#\Jk
=11||
*M3/4
(8.A#\L
16G#\Jk)
(8.G#\L
16E\Jk)
8.G#\L
16E\Jk
=12
4G#\
4G#\
4r
=13||
*M2/4
4G#\
8.A\L
16A\Jk
=14
12A\L
[12G#\
12G#\J_
4G#\]
=15
2G#\
=16
4G#\
8.A\L
16A\Jk
=17
12A\L
12G#\
12G#\J
4G#\
=18
4G#\
4r
==:|!
*-
